src/16/panel/copy-paused.svg

<svg xmlns="http://www.w3.org/2000/svg" width="16" height="16" x="0" y="0" version="1.1" xml:space="preserve">
 <defs>
  <style id="current-color-scheme" type="text/css">
   .ColorScheme-Text { color:#bebebe; } .ColorScheme-Highlight { color:#5294e2; }
  </style>
 </defs>
 <path style="opacity:0.3;fill:currentColor" class="ColorScheme-Text" d="M 15.25,0 10.963,5.0292 12.631,6.0038 15.557,0.27539 Z M 3.3691,3 0,6.0038 3.5,5.4999 5,13.5 8,12 9.9766,12.494 V 9.9999 C 9.9766,9.4476 10.424,9 10.977,8.9999 H 14 L 13.475,7.6874 11.789,6.5097 7.3672,9.9999 4.6309,3.4785 Z M 9.2637,5 6.5371,6.0038 7.5781,8.5292 10.947,6.0038 Z"/>
 <path style="clip-rule:evenodd;fill:currentColor;fill-rule:evenodd" class="ColorScheme-Text" d="m 10.976984,10 0,5 L 13,15 13,10 Z M 14,10 l 0,5 1.976984,0 0,-5 z"/>
</svg>

<svg xmlns="http://www.w3.org/2000/svg" width="16" height="16"><defs><style id="current-color-scheme" type="text/css">.ColorScheme-Text{color:#bebebe}</style></defs><path class="ColorScheme-Text" d="M15.25 0l-4.287 5.03 1.668.974L15.557.275zM3.37 3L0 6.004 3.5 5.5l1.5 8L8 12l1.977.494V10a1 1 0 0 1 1-1H14l-.525-1.313-1.686-1.177L7.367 10 4.631 3.479zm5.894 2L6.537 6.004l1.041 2.525 3.369-2.525z" opacity=".3" fill="currentColor"/><path class="ColorScheme-Text" d="M10.977 10v5H13v-5zM14 10v5h1.977v-5z" clip-rule="evenodd" fill="currentColor" fill-rule="evenodd"/></svg>
